dist/assets/img/footer-tl.svg

<svg width="30" height="30" viewBox="0 0 30 30" fill="none" xmlns="http://www.w3.org/2000/svg">
<circle cx="15" cy="15" r="15" fill="#474F60"/>
<mask id="mask0" style="mask-type:alpha" maskUnits="userSpaceOnUse" x="4" y="4" width="22" height="22">
<path d="M12.8432 20.6048L13.0882 16.9035L19.8082 10.8485C20.1057 10.5773 19.7469 10.446 19.3532 10.6823L11.0582 15.9235L7.47069 14.786C6.70069 14.5673 6.69194 14.0335 7.64569 13.6485L21.6194 8.25854C22.2582 7.96979 22.8707 8.41604 22.6257 9.39604L20.2457 20.6048C20.0794 21.401 19.5982 21.5935 18.9332 21.226L15.3107 18.5485L13.5694 20.2373C13.3682 20.4385 13.2019 20.6048 12.8432 20.6048Z" fill="#262B37"/>
</mask>
<g mask="url(#mask0)">
<rect width="30" height="30" fill="#262B37"/>
</g>
</svg>

<svg width="30" height="30" viewBox="0 0 30 30" fill="none" xmlns="http://www.w3.org/2000/svg"><circle cx="15" cy="15" r="15" fill="#474F60"/><mask id="mask0" style="mask-type:alpha" maskUnits="userSpaceOnUse" x="4" y="4" width="22" height="22"><path d="M12.843 20.605l.245-3.701 6.72-6.056c.298-.27-.061-.402-.455-.166l-8.295 5.242-3.587-1.138c-.77-.219-.78-.752.175-1.137l13.973-5.39c.64-.29 1.252.157 1.007 1.137l-2.38 11.209c-.167.796-.648.988-1.313.621l-3.622-2.677-1.742 1.688c-.2.202-.367.368-.726.368z" fill="#262B37"/></mask><g mask="url(#mask0)"><path fill="#262B37" d="M0 0h30v30H0z"/></g></svg>
